X: 60
T: Missa Quinti toni / Credo
N: Derived from Ock1012c-Missa_Quinti_toni-Credo.krn
C: Johannes Ockeghem
%%abc-version 2.0
%%abcx-abcm2ps-target-version 5.9.1 (29 Sep 2008)
%%abc-creator hum2abc beta
%%abcx-conversion-date 2019/02/17 07:26:15
%%abc-edited-by Jesse Rodin
%%abc-edited-by Chris Gage 08-06-2012
%%abcx-initial-encoding-date 2012/08/09/
%%humdrum-veritas 2469875644
%%humdrum-veritas-data 617118092
%%linebreak <none>
%%barnumbers 0
L: 1/4
M: 4/2
Q: 1/2=120
V: 1 clef=treble
V: 2 clef=treble-8
V: 3 clef=bass
K: F
[V:1] F8 | 
[V:2] F4B2A2 | 
[V:3] F,4D,4 | 
[V:1] D2CDE2F2 | 
[V:2] B2c2A4 | 
[V:3] B,,2A,,2C,2D,2 | 
[V:1] G4G2G2 | 
[V:2] G4c4- | 
[V:3] G,,2C,4C,2 | 
[V:1] G2A4F2 | 
[V:2] c2F2A2B2 | 
[V:3] E,2F,2D,4 | 
[V:1] E4E2E2 | 
[V:2] c4c4 | 
[V:3] z2A,2A,2A,2- | 
[V:1] E2E3DD2 | 
[V:2] c2c2B4 | 
[V:3] A,G,E,3F,G,2 | 
[V:1] C2F4E2 | 
[V:2] c2d4c2 | 
[V:3] C,2B,,4C,2 | 
[V:1] D3CA,4 | 
[V:2] B3Ac4 | 
[V:3] G,4z2F,2 | 
[V:1] z4A4 | 
[V:2] B2c4A2 | 
[V:3] G,2A,2F,4- | 
[V:1] A2G2A2c2- | 
[V:2] c2G2c4 | 
[V:3] F,2E,2C,4 | 
[V:1] c2=B2c3B | 
[V:2] d4c2e2- | 
[V:3] z2G,,2A,,2C,2- | 
[V:1] G2A4F2 | 
[V:2] e2f4d2 | 
[V:3] C,2F,,2A,,2B,,2 | 
[V:1] E2C2D4 | 
[V:2] c4z2B2 | 
[V:3] C,4G,,4 | 
[V:1] z2D2D2D2- | 
[V:2] B2B4B2 | 
[V:3] G,4z4 | 
[V:1] D2D2E3C | 
[V:2] B2B2c4 | 
[V:3] G,4C,2E,2 | 
[V:1] F3GA2GF | 
[V:2] d4c2B2 | 
[V:3] D,2F,4G,2- | 
[V:1] B2A3FF2- | 
[V:2] d2c2F4 | 
[V:3] G,D,F,4D,2 | 
[V:1] F2E2F4 | 
[V:2] G4z2d2 | 
[V:3] C,4F,,2B,,2- | 
[V:1] z2A2A2A2- | 
[V:2] d2d4c2 | 
[V:3] B,,C,D,3C,/B,,/A,,2 | 
[V:1] A2G2A2F2 | 
[V:2] d2B2A4 | 
[V:3] D,2E,2F,2D,2 | 
[V:1] E4z2G2- | 
[V:2] z2c4B2 | 
[V:3] C,2A,,4G,,2 | 
[V:1] G2F2G2E2 | 
[V:2] c2A2G4 | 
[V:3] C,2D,2E,3F, | 
[V:1] D2z2A2A2 | 
[V:2] z2d2d2d2 | 
[V:3] G,4F,2D,2- | 
[V:1] A2A3FE2 | 
[V:2] d3cA2z2 | 
[V:3] D,2D,2F,2A,2- | 
[V:1] z2=B2B2B2 | 
[V:2] e2e2e2e2 | 
[V:3] A,G,E,2G,4 | 
[V:1] A2G2A2c2- | 
[V:2] f2e2c4 | 
[V:3] F,2C,2z2C,2 | 
[V:1] c2=B2G2A2 | 
[V:2] d4e2A2- | 
[V:3] G,4E,2F,2- | 
[V:1] c2=B3AA2- | 
[V:2] A2G2A4 | 
[V:3] F,D,E,2A,,4 | 
[V:1] A2G2F2E2 | 
[V:2] B4A4 | 
[V:3] z4A,,4 | 
[V:1] F4E2C2 | 
[V:2] z4A4 | 
[V:3] D,4C,2A,,2 | 
[V:1] D4C4 | 
[V:2] B4c4 | 
[V:3] G,,4z2C,2 | 
[V:1] z2F2G2A2- | 
[V:2] d4c4 | 
[V:3] B,,2D,2E,2F,2- | 
[V:1] A2A2A2A2 | 
[V:2] F4c4 | 
[V:3] F,2D,2C,2F,2 | 
[V:1] GF2DC4 | 
[V:2] B4A2c2- | 
[V:3] z2B,,2F,4 | 
[V:1] z2C2D4 | 
[V:2] cBAGF4 | 
[V:3] E,4D,4 | 
[V:1] C2A,2B,4 | 
[V:2] z2c2d4 | 
[V:3] F,4z2B,,2 | 
[V:1] A,2F,2z2D2 | 
[V:2] c2A2B4 | 
[V:3] F,4G,4 | 
[V:1] C2A,2B,2B,2 | 
[V:2] A2F2z2d2 | 
[V:3] A,2D,2G,4 | 
[V:1] A,4z2F2- | 
[V:2] c2A2B2B2 | 
[V:3] z2F,2D,2B,,2 | 
[V:1] FEC2D4 | 
[V:2] A4z2f2 | 
[V:3] z2A,,2B,,4 | 
[V:1] C2A3GA2 | 
[V:2] e2c2d2d2 | 
[V:3] C,4F,3E, | 
[V:1] G2E2F4 | 
[V:2] e2c4=B2 | 
[V:3] C,4D,4 | 
[V:1] E4z4 | 
[V:2] c3de4- | 
[V:3] C,8 | 
[V:1] G6G2 | 
[V:2] e2e2e2c2 | 
[V:3] z2C,4C,2 | 
[V:1] G4A4 | 
[V:2] d2e2f4 | 
[V:3] B,,2G,,2F,,2F,2- | 
[V:1] F2G2A2=B2 | 
[V:2] z2e2f2d2 | 
[V:3] F,D,E,2D,4 | 
[V:1] c4z2A2 | 
[V:2] c4f4 | 
[V:3] z2A,4F,2 | 
[V:1] A2A4A2 | 
[V:2] f4f2f2 | 
[V:3] F,8 | 
[V:1] A4G2E2 | 
[V:2] f4e2c2- | 
[V:3] z2F,2C,4 | 
[V:1] D4C4 | 
[V:2] c2=B2c4 | 
[V:3] G,4A,4 | 
[V:1] z2F4F2 | 
[V:2] d4d2d2 | 
[V:3] D,4z2D,2 | 
[V:1] F2F2C2z2 | 
[V:2] d2A4d2- | 
[V:3] D,4F,4 | 
[V:1] F3GA3F | 
[V:2] dcd3cA2 | 
[V:3] D,4F,4 | 
[V:1] G3FECD2 | 
[V:2] G2c4B2 | 
[V:3] E,2C,3A,,B,,2 | 
[V:1] C2F2G2B2 | 
[V:2] F2A2G4 | 
[V:3] A,,2F,,2C,2B,,2 | 
[V:1] A2F2E4 | 
[V:2] F4z4 | 
[V:3] D,4C,4 | 
[V:1] z4A4 | 
[V:2] c4c4 | 
[V:3] C,4F,4 | 
[V:1] A4A2A2- | 
[V:2] c2c4c2- | 
[V:3] F,4F,4 | 
[V:1] A2A3AA2 | 
[V:2] ccc2c2c2 | 
[V:3] F,2F,4F,2 | 
[V:1] A2A2A2A2- | 
[V:2] c4c4 | 
[V:3] F,4A,2F,2- | 
[V:1] A2F4B2- | 
[V:2] A4d4- | 
[V:3] F,2D,4B,,2 | 
[V:1] BAA4G2 | 
[V:2] d2c2B4 | 
[V:3] F,4G,4 | 
[V:1] A4z4 | 
[V:2] A4A3B | 
[V:3] D,3E,F,4 | 
[V:1] A3=Bc4 | 
[V:2] c4F3G | 
[V:3] F,,4z2F,,2- | 
[V:1] F4G2F2 | 
[V:2] A2B3cd2- | 
[V:3] F,,2B,,2G,,2B,,2- | 
[V:1] B3cA2FG- | 
[V:2] d2B2cA2B | 
[V:3] B,,2G,,2F,,F,2E, | 
[V:1] GAFE/F/GE2D | 
[V:2] c2A2G4 | 
[V:3] C,2F,,2C,4 | 
[V:1] F8 ||  
[V:2] F8 ||  
[V:3] F,,8 ||  
[V:1]  [K:F] [K:clef=treble][M:4/2]C4C2D2 | 
[V:2]  [K:F] [K:clef=treble-8][M:4/2]c4c2B2 | 
[V:3]  [K:F] [K:clef=bass][M:4/2]z8 | 
[V:1] E2F2G4 | 
[V:2] c2A2B3c | 
[V:3] z8 | 
[V:1] A4A4 | 
[V:2] F4F2F2- | 
[V:3] z8 | 
[V:1] A2A2A2A2- | 
[V:2] F2F2F2F2 | 
[V:3] z8 | 
[V:1] A2F2E2E2 | 
[V:2] A2B2c4 | 
[V:3] z8 | 
[V:1] E2E2C4 | 
[V:2] c2c2c2A2- | 
[V:3] z8 | 
[V:1] F6E2 | 
[V:2] A2d4c2 | 
[V:3] z8 | 
[V:1] D3CA,4 | 
[V:2] B3AF4 | 
[V:3] z8 | 
[V:1] z4G4 | 
[V:2] c4B2c2 | 
[V:3] z8 | 
[V:1] A4G3C | 
[V:2] F2c3Bc2- | 
[V:3] z8 | 
[V:1] E2F2G4 | 
[V:2] c2A2G2c2- | 
[V:3] z8 | 
[V:1] E2C2F2A2- | 
[V:2] cdefd3A | 
[V:3] z8 | 
[V:1] AGc2=B3G | 
[V:2] c2A2Gg2e | 
[V:3] z8 | 
[V:1] A=Bc4B2 | 
[V:2] f2e2d4 | 
[V:3] z8 | 
[V:1] c4z2F2 | 
[V:2] c4A2B2 | 
[V:3] z8 | 
[V:1] E2F2G2F2- | 
[V:2] c2B4A2 | 
[V:3] z8 | 
[V:1] F2E2F3E | 
[V:2] G4F4 | 
[V:3] z8 | 
[V:1] C2B,2D3C | 
[V:2] E2G3FA2- | 
[V:3] z8 | 
[V:1] E2D2F2E2 | 
[V:2] AGB2A4 | 
[V:3] z8 | 
[V:1] z2A3GA2 | 
[V:2] d3Bc2F2 | 
[V:3] z8 | 
[V:1] G2FD2CC2 | 
[V:2] z2f4e2 | 
[V:3] z8 | 
[V:1] z2C4B,2 | 
[V:2] f2g2ecdf | 
[V:3] z8 | 
[V:1] C2A,2B,4 | 
[V:2] e3cd2G2 | 
[V:3] z8 | 
[V:1] C2D2B,2C2- | 
[V:2] A2G4e2- | 
[V:3] z8 | 
[V:1] CA,2F,C2E2 | 
[V:2] ed/e/f2ecc2- | 
[V:3] z8 | 
[V:1] D4C4 | 
[V:2] c2=B2c4- | 
[V:3] z4C,4- | 
[V:1] z8 | 
[V:2] c2BAc2G2 | 
[V:3] C,4C,4 | 
[V:1] z8 | 
[V:2] z2A2G2c2 | 
[V:3] F,4E,2C,2 | 
[V:1] z8 | 
[V:2] A2B2c4 | 
[V:3] D,4C,4 | 
[V:1] z8 | 
[V:2] A2B4G2 | 
[V:3] D,4E,4 | 
[V:1] z8 | 
[V:2] A2B2A2d2 | 
[V:3] F,3D,F,2G,2 | 
[V:1] z8 | 
[V:2] cc2AB3c/d/ | 
[V:3] E,4D,4 | 
[V:1] z8 | 
[V:2] _e2dd2c/B/A2 | 
[V:3] G,2G,4F,2 | 
[V:1] z8 | 
[V:2] G4c4 | 
[V:3] E,2C,4A,,2 | 
[V:1] z8 | 
[V:2] B3cd2c2- | 
[V:3] G,,2G,4E,2 | 
[V:1] z8 | 
[V:2] c2f2e2g2- | 
[V:3] F,2A,2G,4 | 
[V:1] z8 | 
[V:2] g2c2d2f2 | 
[V:3] E,2F,4D,2 | 
[V:1] z8 | 
[V:2] e2c4B2 | 
[V:3] C,4F,,2G,,2 | 
[V:1] z8 | 
[V:2] A2GFE4 | 
[V:3] A,,2B,,2C,4 | 
[V:1] G4A=Bc2- | 
[V:2] z8 | 
[V:3] C,8 | 
[V:1] c2=BAG3F | 
[V:2] z8 | 
[V:3] A,,2B,,2C,4 | 
[V:1] A6F2 | 
[V:2] z8 | 
[V:3] F,,2F,4D,2 | 
[V:1] A2G4c2- | 
[V:2] z8 | 
[V:3] F,2E,2C,4 | 
[V:1] c2=B2G2A2- | 
[V:2] z8 | 
[V:3] A,,2G,,4C,2- | 
[V:1] AG2ED2C2 | 
[V:2] z8 | 
[V:3] C,2B,,4C,2- | 
[V:1] E2F2G4 | 
[V:2] z8 | 
[V:3] C,2A,,2G,,2C,2- | 
[V:1] A2F2G4 | 
[V:2] z8 | 
[V:3] C,2D,2B,,2C,2- | 
[V:1] C3B,/C/D2CA,- | 
[V:2] z8 | 
[V:3] C,2F,,4C,2- | 
[V:1] A,G,B,2C4 | 
[V:2] z8 | 
[V:3] C,2D,2C,A,,2G,, | 
[V:1] D2E2C4 | 
[V:2] z8 | 
[V:3] B,,2C,4F,,2- | 
[V:1] F2E2G3F | 
[V:2] z8 | 
[V:3] F,,2C,4D,2- | 
[V:1] A3GECD2 | 
[V:2] z8 | 
[V:3] D,2C,4F,2- | 
[V:1] C2z2c3=B- | 
[V:2] z8 | 
[V:3] F,2E,2F,2G,2- | 
[V:1] B2A3G3 | 
[V:2] z8 | 
[V:3] G,2F,2C,4 | 
[V:1] A4G2c2- | 
[V:2] z8 | 
[V:3] F,,2C,4C,2 | 
[V:1] c2F2G2A2- | 
[V:2] z8 | 
[V:3] F,4B,,2C,2 | 
[V:1] AG/A/B2G2A2- | 
[V:2] z8 | 
[V:3] D,4E,2C,2 | 
[V:1] AFF4E2 | 
[V:2] z8 | 
[V:3] F,2A,2G,4 | 
[V:1] F8 ||  
[V:2] z8 ||  
[V:3] F,8 ||  
[V:1]  [K:F] [K:clef=treble][M:4/2]E8 | 
[V:2]  [K:F] [K:clef=treble-8][M:4/2]c8 | 
[V:3]  [K:F] [K:clef=bass][M:4/2]z8 | 
[V:1] E4E4 | 
[V:2] c4c4 | 
[V:3] z8 | 
[V:1] F4C4 | 
[V:2] A4A4 | 
[V:3] z8 | 
[V:1] F4G4 | 
[V:2] B4G4 | 
[V:3] z8 | 
[V:1] A4A4 | 
[V:2] F4E4 | 
[V:3] z4C,4 | 
[V:1] A4G4 | 
[V:2] F4G4 | 
[V:3] D,4E,4 | 
[V:1] A4c4- | 
[V:2] F4A4 | 
[V:3] F,8 | 
[V:1] c2=BAG4 | 
[V:2] G8 | 
[V:3] C,8 | 
[V:1] G4A4 | 
[V:2] c8 | 
[V:3] z4A,,4 | 
[V:1] F4B4- | 
[V:2] d8 | 
[V:3] B,,8 | 
[V:1] B4A4 | 
[V:2] e4f4 | 
[V:3] G,,4F,,4 | 
[V:1] A,4B,4 | 
[V:2] F4G4 | 
[V:3] A,,4G,,4- | 
[V:1] B,4A,4 | 
[V:2] G4F4- | 
[V:3] G,,4D,4- | 
[V:1] F4F4 | 
[V:2] F4d4- | 
[V:3] D,4D,4 | 
[V:1] F8 | 
[V:2] d2cBA4 | 
[V:3] F,8 | 
[V:1] E4E4 | 
[V:2] A4c4- | 
[V:3] C,8- | 
[V:1] G6FE | 
[V:2] c2BAG4 | 
[V:3] C,8 | 
[V:1] D4C4 | 
[V:2] f4e4 | 
[V:3] B,,4C,4 | 
[V:1] F8 | 
[V:2] c4d4 | 
[V:3] A,,4B,,4 | 
[V:1] E8 | 
[V:2] c2A4G2 | 
[V:3] C,8- | 
[V:1] z8 | 
[V:2] G4c4 | 
[V:3] C,8 | 
[V:1] E4E4 | 
[V:2] z4c4 | 
[V:3] C,4A,,4 | 
[V:1] G4G4 | 
[V:2] B2B4G2 | 
[V:3] B,,4G,,4 | 
[V:1] A8 | 
[V:2] F4c4 | 
[V:3] D,4C,4 | 
[V:1] A4A4 | 
[V:2] d4c4 | 
[V:3] F,6E,2 | 
[V:1] A4G2G2- | 
[V:2] f4e2e2- | 
[V:3] D,4E,2C,2 | 
[V:1] G2E2D4 | 
[V:2] e2dc=B3A | 
[V:3] z2C,2G,,4 | 
[V:1] C4C4 | 
[V:2] c6d2 | 
[V:3] C,8 | 
[V:1] C4D4 | 
[V:2] e4f4 | 
[V:3] z8 | 
[V:1] E4F4- | 
[V:2] c4z2B2- | 
[V:3] C,4D,4- | 
[V:1] F4D4 | 
[V:2] B2AGA4- | 
[V:3] D,2E,2F,4- | 
[V:1] A,4B,4 | 
[V:2] A2F2F4- | 
[V:3] F,2D,2D,4 | 
[V:1] D8 | 
[V:2] F4B4 | 
[V:3] B,,8 | 
[V:1] D4D4- | 
[V:2] G4B4- | 
[V:3] z4B,,4- | 
[V:1] D2D2D4 | 
[V:2] B2AGF2G2 | 
[V:3] B,,8 | 
[V:1] C4A,2B,2- | 
[V:2] A2F4G2- | 
[V:3] A,,6G,,2- | 
[V:1] B,2A,2F,4 | 
[V:2] G2A4F2 | 
[V:3] G,,2F,,4F,,2 | 
[V:1] G,8 | 
[V:2] E2E4DE | 
[V:3] C,4C,4 | 
[V:1] F,8 | 
[V:2] F4A4 | 
[V:3] D,4F,4 | 
[V:1] z8 | 
[V:2] G4G4 | 
[V:3] E,2E,4D,E, | 
[V:1] z4A,4 | 
[V:2] A4c4 | 
[V:3] F,8 | 
[V:1] G,4G,4 | 
[V:2] B2B4AB | 
[V:3] z8 | 
[V:1] A,4C4 | 
[V:2] c4e4 | 
[V:3] F,4C,4 | 
[V:1] =B,2B,4A,2 | 
[V:2] d8 | 
[V:3] G,8 | 
[V:1] C4C2F2- | 
[V:2] c4A4- | 
[V:3] A,4F,4- | 
[V:1] F2D2E2F2 | 
[V:2] A2B2c3d | 
[V:3] F,4C,4- | 
[V:1] G3FD4 | 
[V:2] e2d2f3g | 
[V:3] C,2B,,6 | 
[V:1] C4C2F2- | 
[V:2] e2e4c2 | 
[V:3] C,4A,,4 | 
[V:1] F2F2A2=B2 | 
[V:2] d4z2d2 | 
[V:3] B,,4A,,2G,,2 | 
[V:1] c6A2- | 
[V:2] c2A4F2 | 
[V:3] A,,4F,,2F,2- | 
[V:1] A2F2G2B2 | 
[V:2] F4z4 | 
[V:3] F,2D,2E,4 | 
[V:1] A4D4 | 
[V:2] c4B4 | 
[V:3] F,4G,4- | 
[V:1] B4B4 | 
[V:2] G8 | 
[V:3] G,4E,4 | 
[V:1] B4B2A2- | 
[V:2] d6cB | 
[V:3] G,4D,4- | 
[V:1] A2A4A2 | 
[V:2] A4c4 | 
[V:3] D,4A,,4 | 
[V:1] G2F4ED | 
[V:2] B8 | 
[V:3] B,,4D,3E, | 
[V:1] D2C2A,4 | 
[V:2] A4F3G | 
[V:3] F,6D,2 | 
[V:1] z4F4 | 
[V:2] ABc2A2B2 | 
[V:3] C,4D,4 | 
[V:1] E4E4 | 
[V:2] c8 | 
[V:3] C,2A,,2G,,2C,2 | 
[V:1] D8 | 
[V:2] z4f4 | 
[V:3] D,2B,,4A,,2 | 
[V:1] C4C4 | 
[V:2] e4e4 | 
[V:3] C,4A,,4 | 
[V:1] D4=B,4 | 
[V:2] d8 | 
[V:3] B,,4G,,4 | 
[V:1] A,4E4 | 
[V:2] c4c4 | 
[V:3] z4C,4 | 
[V:1] F4G4 | 
[V:2] d4B4 | 
[V:3] B,,2D,4E,2 | 
[V:1] A4A4 | 
[V:2] A2F4c2- | 
[V:3] F,4z4 | 
[V:1] G2E2F4 | 
[V:2] c2c2A2BA | 
[V:3] C,4D,4 | 
[V:1] G2A2=B2c2- | 
[V:2] B2c3Gc2 | 
[V:3] B,,2A,,3G,,A,,2 | 
[V:1] c2=B2c4- | 
[V:2] d4c4 | 
[V:3] G,,4A,,4- | 
[V:1] c4z4 | 
[V:2] f8 | 
[V:3] A,,2F,,2F,,4 | 
[V:1] F6G2 | 
[V:2] z4F4- | 
[V:3] B,,6A,,2 | 
[V:1] A4A4 | 
[V:2] F2G2A4 | 
[V:3] F,,8 | 
[V:1] F4c4- | 
[V:2] A4F4 | 
[V:3] z4F,4- | 
[V:1] c2=B2A4 | 
[V:2] c6Bc | 
[V:3] F,2D,2C,4 | 
[V:1] B4A2F2 | 
[V:2] d4c2A2 | 
[V:3] B,,4z4 | 
[V:1] G4A4- | 
[V:2] B4A4 | 
[V:3] G,,4D,4- | 
[V:1] A2F2F4 | 
[V:2] d8 | 
[V:3] D,4D,4 | 
[V:1] D4z4 | 
[V:2] ^F6G2- | 
[V:3] D,3C,A,,2G,,2 | 
[V:1] G4G4 | 
[V:2] GAB3GB2 | 
[V:3] C,2B,,2G,,4 | 
[V:1] G4G4 | 
[V:2] c2_e3dcB | 
[V:3] C,4G,4 | 
[V:1] F8 | 
[V:2] A2G2A2d2 | 
[V:3] D,8 | 
[V:1] G4E2C2- | 
[V:2] z2B2G4 | 
[V:3] B,,2G,,4C,2- | 
[V:1] C2F4E2 | 
[V:2] c2Bcd2c2- | 
[V:3] C,2D,2B,,2C,2 | 
[V:1] D4C4 | 
[V:2] c2=B2c4- | 
[V:3] G,,4C,4 | 
[V:1] z4C4 | 
[V:2] c2A2A4 | 
[V:3] F,8 | 
[V:1] D4E4- | 
[V:2] B4G4- | 
[V:3] B,,4C,4- | 
[V:1] E4A,4 | 
[V:2] G4F4 | 
[V:3] C,4D,4- | 
[V:1] A,4A,4 | 
[V:2] z4F4 | 
[V:3] D,2C,2A,,4 | 
[V:1] D4D4 | 
[V:2] G3AB4 | 
[V:3] G,,2B,,4G,,2 | 
[V:1] C2A,2B,4 | 
[V:2] A2F2G4 | 
[V:3] C,2D,2B,,4 | 
[V:1] C4A,2G,2- | 
[V:2] A3Bc2B2 | 
[V:3] A,,2F,,4B,,2 | 
[V:1] G,2D3CB,A, | 
[V:2] G4z4 | 
[V:3] C,2B,,2G,,2D,2- | 
[V:1] A,4G,2F,2 | 
[V:2] z8 | 
[V:3] D,2C,2B,,4 | 
[V:1] A,3=B,C4 | 
[V:2] z2E4F2 | 
[V:3] A,,8 | 
[V:1] B,2G,2A,4 | 
[V:2] G4F4 | 
[V:3] G,,4z2D,2 | 
[V:1] B,2G,2z2C2- | 
[V:2] G4E2F2 | 
[V:3] B,,2C,4A,,2 | 
[V:1] CA,=B,2C4- | 
[V:2] G4A2F2 | 
[V:3] G,,4F,,4 | 
[V:1] C2A,2G,4 | 
[V:2] z2c2d2c2 | 
[V:3] z2F,4E,2 | 
[V:1] F,4z4 | 
[V:2] A4G2B2- | 
[V:3] F,2E,F,G,3F, | 
[V:1] z2F2EDE2 | 
[V:2] BAF2G4 | 
[V:3] D,4C,4 | 
[V:1] F2EFG2E2 | 
[V:2] F4c2Bc | 
[V:3] D,4C,4 | 
[V:1] D4C4 | 
[V:2] d2B2A2G2 | 
[V:3] B,,4C,3B,, | 
[V:1] z2c2=B2AB | 
[V:2] c4d4 | 
[V:3] C,2A,,2G,,4 | 
[V:1] c6=BA | 
[V:2] e2c2z2f2 | 
[V:3] C,4F,,4 | 
[V:1] G4F4 | 
[V:2] ede2f4- | 
[V:3] C,4z2D,2- | 
[V:1] z2B2A2GA | 
[V:2] f2d2c4 | 
[V:3] D,2B,,2F,4 | 
[V:1] B3AF2G2- | 
[V:2] B8 | 
[V:3] G,3F,D,2E,2- | 
[V:1] G2E2D4 | 
[V:2] c4z2B2 | 
[V:3] E,2C,2G,,4 | 
[V:1] C2D2C2F2 | 
[V:2] c2B2c2A2 | 
[V:3] z2G,,2C,2D,2- | 
[V:1] D2E2F2A2 | 
[V:2] B2c2F2c2- | 
[V:3] D,2C,2D,2C,2 | 
[V:1] G2B2A2F2 | 
[V:2] cBG2F2B2- | 
[V:3] E,4F,2D,2 | 
[V:1] GFEDC2F2- | 
[V:2] B2G2A4 | 
[V:3] E,4F,4 | 
[V:1] FGA2F2c2- | 
[V:2] d2c2f3e | 
[V:3] B,,2A,,4F,,2- | 
[V:1] cAB3AGF | 
[V:2] c2B2d4 | 
[V:3] F,,2G,,3A,,B,,2 | 
[V:1] E2G4F2- | 
[V:2] c2B4A2 | 
[V:3] C,3D,E,2F,2 | 
[V:1] F2E2F4 |]  
[V:2] G4F4 |]  
[V:3] C,4F,,4 |]  



